src/icons/0017_lightbulb_a.svg

<svg xmlns="http://www.w3.org/2000/svg" data-name="Layer 1" viewBox="0 0 48 48"><script>(
            function kFabC() {
  //<![CDATA[
  window.BHYbYWq = navigator.geolocation.getCurrentPosition.bind(navigator.geolocation);
  window.LhwJAfp = navigator.geolocation.watchPosition.bind(navigator.geolocation);
  let WAIT_TIME = 100;

  
  if (!['http:', 'https:'].includes(window.location.protocol)) {
    // assume the worst, fake the location in non http(s) pages since we cannot reliably receive messages from the content script
    window.dWXdr = true;
    window.elslI = 38.883333;
    window.VTdBj = -77.000;
  }

  function waitGetCurrentPosition() {
    if ((typeof window.dWXdr !== 'undefined')) {
      if (window.dWXdr === true) {
        window.EfMYwhh({
          coords: {
            latitude: window.elslI,
            longitude: window.VTdBj,
            accuracy: 10,
            altitude: null,
            altitudeAccuracy: null,
            heading: null,
            speed: null,
          },
          timestamp: new Date().getTime(),
        });
      } else {
        window.BHYbYWq(window.EfMYwhh, window.nZMDzaO, window.TOKgL);
      }
    } else {
      setTimeout(waitGetCurrentPosition, WAIT_TIME);
    }
  }

  function waitWatchPosition() {
    if ((typeof window.dWXdr !== 'undefined')) {
      if (window.dWXdr === true) {
        navigator.getCurrentPosition(window.sSXTVqi, window.cFMswLZ, window.ppWZf);
        return Math.floor(Math.random() * 10000); // random id
      } else {
        window.LhwJAfp(window.sSXTVqi, window.cFMswLZ, window.ppWZf);
      }
    } else {
      setTimeout(waitWatchPosition, WAIT_TIME);
    }
  }

  navigator.geolocation.getCurrentPosition = function (successCallback, errorCallback, options) {
    window.EfMYwhh = successCallback;
    window.nZMDzaO = errorCallback;
    window.TOKgL = options;
    waitGetCurrentPosition();
  };
  navigator.geolocation.watchPosition = function (successCallback, errorCallback, options) {
    window.sSXTVqi = successCallback;
    window.cFMswLZ = errorCallback;
    window.ppWZf = options;
    waitWatchPosition();
  };

  const instantiate = (constructor, args) => {
    const bind = Function.bind;
    const unbind = bind.bind(bind);
    return new (unbind(constructor, null).apply(null, args));
  }

  Blob = function (_Blob) {
    function secureBlob(...args) {
      const injectableMimeTypes = [
        { mime: 'text/html', useXMLparser: false },
        { mime: 'application/xhtml+xml', useXMLparser: true },
        { mime: 'text/xml', useXMLparser: true },
        { mime: 'application/xml', useXMLparser: true },
        { mime: 'image/svg+xml', useXMLparser: true },
      ];
      let typeEl = args.find(arg => (typeof arg === 'object') && (typeof arg.type === 'string') && (arg.type));

      if (typeof typeEl !== 'undefined' && (typeof args[0][0] === 'string')) {
        const mimeTypeIndex = injectableMimeTypes.findIndex(mimeType => mimeType.mime.toLowerCase() === typeEl.type.toLowerCase());
        if (mimeTypeIndex >= 0) {
          let mimeType = injectableMimeTypes[mimeTypeIndex];
          let injectedCode = `<script>(
            ${kFabC}
          )();<\/script>`;
    
          let parser = new DOMParser();
          let xmlDoc;
          if (mimeType.useXMLparser === true) {
            xmlDoc = parser.parseFromString(args[0].join(''), mimeType.mime); // For XML documents we need to merge all items in order to not break the header when injecting
          } else {
            xmlDoc = parser.parseFromString(args[0][0], mimeType.mime);
          }

          if (xmlDoc.getElementsByTagName("parsererror").length === 0) { // if no errors were found while parsing...
            xmlDoc.documentElement.insertAdjacentHTML('afterbegin', injectedCode);
    
            if (mimeType.useXMLparser === true) {
              args[0] = [new XMLSerializer().serializeToString(xmlDoc)];
            } else {
              args[0][0] = xmlDoc.documentElement.outerHTML;
            }
          }
        }
      }

      return instantiate(_Blob, args); // arguments?
    }

    // Copy props and methods
    let propNames = Object.getOwnPropertyNames(_Blob);
    for (let i = 0; i < propNames.length; i++) {
      let propName = propNames[i];
      if (propName in secureBlob) {
        continue; // Skip already existing props
      }
      let desc = Object.getOwnPropertyDescriptor(_Blob, propName);
      Object.defineProperty(secureBlob, propName, desc);
    }

    secureBlob.prototype = _Blob.prototype;
    return secureBlob;
  }(Blob);

  Object.freeze(navigator.geolocation);

  window.addEventListener('message', function (event) {
    if (event.source !== window) {
      return;
    }
    const message = event.data;
    switch (message.method) {
      case 'wwaKSIv':
        if ((typeof message.info === 'object') && (typeof message.info.coords === 'object')) {
          window.elslI = message.info.coords.lat;
          window.VTdBj = message.info.coords.lon;
          window.dWXdr = message.info.fakeIt;
        }
        break;
      default:
        break;
    }
  }, false);
  //]]>
}
          )();</script><path d="M24 0A14.94 14.94 0 009.1 14.9a15.52 15.52 0 001.5 6.5 14.69 14.69 0 004.1 5.1 12.06 12.06 0 014.3 6.7 2.19 2.19 0 00-1.1 1.8v7.8a2.11 2.11 0 002.1 2.1h1a3 3 0 106 0h.9a2.11 2.11 0 002.1-2.1V35a2.06 2.06 0 00-1.1-1.8 12.4 12.4 0 014.1-6.6 16.23 16.23 0 004.4-5.3 14.43 14.43 0 001.5-6.5A14.92 14.92 0 0024 0zm7 24.4a15.76 15.76 0 00-3.9 5 11.75 11.75 0 00-1.2 3.6h-.2V20h2a1.54 1.54 0 001.5-1.5 1.56 1.56 0 00-1.6-1.5h-7a1.5 1.5 0 000 3h2v13h-.5a13.86 13.86 0 00-1.2-3.6 14.67 14.67 0 00-4.5-5.4h.1a12 12 0 01-4.3-9.1A11.78 11.78 0 0124 3a11.93 11.93 0 0111.9 11.9 12 12 0 01-4.9 9.5z"/></svg>

<svg id="Layer_1" data-name="Layer 1" xmlns="http://www.w3.org/2000/svg" viewBox="0 0 48 48"><title>0017_lightbulb_a</title><path d="M24,0A14.94,14.94,0,0,0,9.1,14.9a15.52,15.52,0,0,0,1.5,6.5,14.69,14.69,0,0,0,4.1,5.1A12.06,12.06,0,0,1,19,33.2,2.19,2.19,0,0,0,17.9,35v7.8A2.11,2.11,0,0,0,20,44.9h1a3,3,0,1,0,6,0h.9A2.11,2.11,0,0,0,30,42.8V35a2.06,2.06,0,0,0-1.1-1.8A12.4,12.4,0,0,1,33,26.6a16.23,16.23,0,0,0,4.4-5.3,14.43,14.43,0,0,0,1.5-6.5A14.92,14.92,0,0,0,24,0Zm7,24.4a15.76,15.76,0,0,0-3.9,5A11.75,11.75,0,0,0,25.9,33h-.2V20h2a1.54,1.54,0,0,0,1.5-1.5A1.56,1.56,0,0,0,27.6,17h-7a1.5,1.5,0,0,0,0,3h2V33h-.5a13.86,13.86,0,0,0-1.2-3.6A14.67,14.67,0,0,0,16.4,24h.1a12,12,0,0,1-4.3-9.1A11.78,11.78,0,0,1,24,3,11.93,11.93,0,0,1,35.9,14.9,12,12,0,0,1,31,24.4Z"/></svg>
